SVG_Azure_All/Incident.svg

<?xml version="1.0" encoding="UTF-8" standalone="no"?>
<!-- Generated by Microsoft Visio, SVG Export Incident.svg Page-1 -->

<svg
   xmlns:dc="http://purl.org/dc/elements/1.1/"
   xmlns:cc="http://creativecommons.org/ns#"
   xmlns:rdf="http://www.w3.org/1999/02/22-rdf-syntax-ns#"
   xmlns:svg="http://www.w3.org/2000/svg"
   xmlns="http://www.w3.org/2000/svg"
   xmlns:sodipodi="http://sodipodi.sourceforge.net/DTD/sodipodi-0.dtd"
   xmlns:inkscape="http://www.inkscape.org/namespaces/inkscape"
   width="0.78736144in"
   height="0.66932344in"
   viewBox="0 0 56.690025 48.191306"
   xml:space="preserve"
   class="st6"
   version="1.1"
   id="svg49"
   sodipodi:docname="Incident.svg"
   style="font-size:12px;overflow:visible;color-interpolation-filters:sRGB;fill:none;fill-rule:evenodd;stroke-linecap:square;stroke-miterlimit:3"
   inkscape:version="0.92.5 (2060ec1f9f, 2020-04-08)"><metadata
   id="metadata55"><rdf:RDF><cc:Work
       rdf:about=""><dc:format>image/svg+xml</dc:format><dc:type
         rdf:resource="http://purl.org/dc/dcmitype/StillImage" /></cc:Work></rdf:RDF></metadata><defs
   id="defs53" /><sodipodi:namedview
   pagecolor="#ffffff"
   bordercolor="#666666"
   borderopacity="1"
   objecttolerance="10"
   gridtolerance="10"
   guidetolerance="10"
   inkscape:pageopacity="0"
   inkscape:pageshadow="2"
   inkscape:window-width="640"
   inkscape:window-height="480"
   id="namedview51"
   showgrid="false"
   inkscape:zoom="1.8080234"
   inkscape:cx="37.795337"
   inkscape:cy="19.914406"
   inkscape:window-x="0"
   inkscape:window-y="0"
   inkscape:window-maximized="0"
   inkscape:current-layer="svg49" />
	<style
   type="text/css"
   id="style2">
	<![CDATA[
		.st1 {fill:#ffffff;fill-opacity:0.75;stroke:none;stroke-linecap:butt;stroke-width:15.6923}
		.st2 {fill:#0072c6;stroke:none;stroke-linecap:butt;stroke-width:15.6923}
		.st3 {fill:#bcbcbc;fill-opacity:0.61;stroke:none;stroke-linecap:butt;stroke-width:15.6923}
		.st4 {fill:#1185db;stroke:none;stroke-linecap:butt;stroke-width:15.6923}
		.st5 {fill:#ffffff;stroke:none;stroke-linecap:butt;stroke-width:15.6923}
		.st6 {fill:none;fill-rule:evenodd;font-size:12px;overflow:visible;stroke-linecap:square;stroke-miterlimit:3}
	]]>
	</style>

	<g
   id="g47"
   transform="translate(-15.6923,-15.693)">
		<title
   id="title4">Page-1</title>
		<g
   id="group4156-1"
   transform="translate(15.6923,-34.0157)">
			<title
   id="title6">Incident</title>
			<g
   id="group4157-2">
				<title
   id="title8">g18</title>
				<g
   id="shape4158-3"
   transform="translate(21.971,-19.7605)">
					<title
   id="title10">path4</title>
					<path
   d="M 10.79,89.63 H 1.57 C 0.59,89.63 0,90.44 0,91.24 v 5.04 c 0,1.01 0.79,1.62 1.57,1.62 h 9.22 c 0.98,0 1.57,-0.81 1.57,-1.62 v -5.04 c 0,-0.8 -0.79,-1.61 -1.57,-1.61 z"
   class="st1"
   id="path12"
   inkscape:connector-curvature="0"
   style="fill:#ffffff;fill-opacity:0.75;stroke:none;stroke-width:15.69229984;stroke-linecap:butt" />
				</g>
				<g
   id="shape4159-5"
   transform="translate(13.3385,-34.8813)">
					<title
   id="title15">path6</title>
					<path
   d="M 29.82,97.9 H 25.5 v -7.26 c 0,-1.21 -0.78,-2.02 -1.96,-2.02 H 6.28 c -1.18,0 -1.96,0.81 -1.96,2.02 V 97.9 H 0 v -6.25 c 0,-3.63 2.55,-6.66 6.28,-7.06 h 17.26 c 3.53,0.4 6.28,3.43 6.28,7.06 z"
   class="st2"
   id="path17"
   inkscape:connector-curvature="0"
   style="fill:#0072c6;stroke:none;stroke-width:15.69229984;stroke-linecap:butt" />
				</g>
				<g
   id="shape4160-7"
   transform="translate(0,-24.1954)">
					<title
   id="title20">path8</title>
					<path
   d="M 56.1,95.28 H 0 v 2.62 h 56.1 z"
   class="st3"
   id="path22"
   inkscape:connector-curvature="0"
   style="fill:#bcbcbc;fill-opacity:0.61000001;stroke:none;stroke-width:15.69229984;stroke-linecap:butt" />
				</g>
				<g
   id="shape4161-9">
					<title
   id="title25">path10</title>
					<path
   d="M 0,97.9 V 61.6 c 0,-2.01 1.77,-3.83 3.73,-3.83 h 49.43 a 3.51629,3.61417 0 0 1 3.53,3.63 v 36.5 z"
   class="st2"
   id="path27"
   inkscape:connector-curvature="0"
   style="fill:#0072c6;stroke:none;stroke-width:15.69229984;stroke-linecap:butt" />
				</g>
				<g
   id="shape4162-11">
					<title
   id="title30">path12</title>
					<path
   d="M 16.87,97.9 H 0 V 61.6 c 0,-2.01 1.77,-3.83 3.73,-3.83 h 30.8 z"
   class="st4"
   id="path32"
   inkscape:connector-curvature="0"
   style="fill:#1185db;stroke:none;stroke-width:15.69229984;stroke-linecap:butt" />
				</g>
				<g
   id="shape4163-13"
   transform="translate(0,-26.01)">
					<title
   id="title35">path14</title>
					<path
   d="M 0,95.28 H 56.69 V 97.9 H 0 Z"
   class="st5"
   id="path37"
   inkscape:connector-curvature="0"
   style="fill:#ffffff;stroke:none;stroke-width:15.69229984;stroke-linecap:butt" />
				</g>
				<g
   id="shape4164-15"
   transform="translate(21.382,-19.7605)">
					<title
   id="title40">path16</title>
					<path
   d="M 12.16,89.63 H 1.57 C 0.59,89.63 0,90.44 0,91.24 v 5.04 c 0,1.01 0.79,1.62 1.57,1.62 h 10.59 c 0.98,0 1.57,-0.81 1.57,-1.62 v -5.04 c 0,-0.8 -0.78,-1.61 -1.57,-1.61 z"
   class="st5"
   id="path42"
   inkscape:connector-curvature="0"
   style="fill:#ffffff;stroke:none;stroke-width:15.69229984;stroke-linecap:butt" />
				</g>
			</g>
		</g>
	</g>
</svg>

<?xml version="1.0" encoding="UTF-8" standalone="no"?>
<!DOCTYPE svg PUBLIC "-//W3C//DTD SVG 1.1//EN" "http://www.w3.org/Graphics/SVG/1.1/DTD/svg11.dtd">
<!-- Generated by Microsoft Visio, SVG Export Incident.svg Page-1 -->
<svg xmlns="http://www.w3.org/2000/svg" xmlns:xlink="http://www.w3.org/1999/xlink" xmlns:ev="http://www.w3.org/2001/xml-events"
		width="1.2233in" height="1.35968in" viewBox="0 0 88.0776 97.897" xml:space="preserve" color-interpolation-filters="sRGB"
		class="st6">
	<style type="text/css">
	<![CDATA[
		.st1 {fill:#ffffff;fill-opacity:0.75;stroke:none;stroke-linecap:butt;stroke-width:15.6923}
		.st2 {fill:#0072c6;stroke:none;stroke-linecap:butt;stroke-width:15.6923}
		.st3 {fill:#bcbcbc;fill-opacity:0.61;stroke:none;stroke-linecap:butt;stroke-width:15.6923}
		.st4 {fill:#1185db;stroke:none;stroke-linecap:butt;stroke-width:15.6923}
		.st5 {fill:#ffffff;stroke:none;stroke-linecap:butt;stroke-width:15.6923}
		.st6 {fill:none;fill-rule:evenodd;font-size:12px;overflow:visible;stroke-linecap:square;stroke-miterlimit:3}
	]]>
	</style>

	<g>
		<title>Page-1</title>
		<g id="group4072-1" transform="translate(15.6923,-34.0157)">
			<title>Incident</title>
			<g id="group4073-2">
				<title>g18</title>
				<g id="shape4074-3" transform="translate(21.971,-19.7605)">
					<title>path4</title>
					<path d="M10.79 89.63 L1.57 89.63 C0.59 89.63 0 90.44 0 91.24 L0 96.28 C0 97.29 0.79 97.9 1.57 97.9 L10.79 97.9
								 C11.77 97.9 12.36 97.09 12.36 96.28 L12.36 91.24 C12.36 90.44 11.57 89.63 10.79 89.63 Z"
							class="st1"/>
				</g>
				<g id="shape4075-5" transform="translate(13.3385,-34.8813)">
					<title>path6</title>
					<path d="M29.82 97.9 L25.5 97.9 L25.5 90.64 C25.5 89.43 24.72 88.62 23.54 88.62 L6.28 88.62 C5.1 88.62 4.32 89.43
								 4.32 90.64 L4.32 97.9 L0 97.9 L0 91.65 C0 88.02 2.55 84.99 6.28 84.59 L23.54 84.59 C27.07 84.99
								 29.82 88.02 29.82 91.65 L29.82 97.9 Z" class="st2"/>
				</g>
				<g id="shape4076-7" transform="translate(0,-24.1954)">
					<title>path8</title>
					<path d="M56.1 95.28 L0 95.28 L0 97.9 L56.1 97.9 L56.1 95.28 Z" class="st3"/>
				</g>
				<g id="shape4077-9">
					<title>path10</title>
					<path d="M0 97.9 L0 61.6 C0 59.59 1.77 57.77 3.73 57.77 L53.16 57.77 A3.51629 3.61417 0 0 1 56.69 61.4 L56.69
								 97.9 L0 97.9 Z" class="st2"/>
				</g>
				<g id="shape4078-11">
					<title>path12</title>
					<path d="M16.87 97.9 L0 97.9 L0 61.6 C0 59.59 1.77 57.77 3.73 57.77 L34.53 57.77 L16.87 97.9 Z" class="st4"/>
				</g>
				<g id="shape4079-13" transform="translate(0,-26.01)">
					<title>path14</title>
					<path d="M0 95.28 L56.69 95.28 L56.69 97.9 L0 97.9 L0 95.28 Z" class="st5"/>
				</g>
				<g id="shape4080-15" transform="translate(21.382,-19.7605)">
					<title>path16</title>
					<path d="M12.16 89.63 L1.57 89.63 C0.59 89.63 0 90.44 0 91.24 L0 96.28 C0 97.29 0.79 97.9 1.57 97.9 L12.16 97.9
								 C13.14 97.9 13.73 97.09 13.73 96.28 L13.73 91.24 C13.73 90.44 12.95 89.63 12.16 89.63 Z"
							class="st5"/>
				</g>
			</g>
		</g>
	</g>
</svg>
